X:1     %Music
T:Didn't My Lord Deliver Daniel
B:Alan Lomax, The Penguin Book of American Folk Songs, Penguin, 1964
F:http://www.folkinfo.org/songs
Q:1/2=69
L:1/8     %
K:F
FD | F D2 C DF3 |A2 AA-A4 |G2 GG-G4 | F2 DD3
w:Did-n't my Lord de-li-ver Da-nu-el, * Da-nu-el, * Da-nu-el,
 FD |F D2 C DF3 |A2 AA-A3 A |A2 G2 FD FD-|D6
w: Did-n't my Lord de-li-ver Da-nu-el, * And why not e-ver-y man? 
 GG |G G-G3 GF FF |G F-F2G2 G2 |GG GG GG FF | A6
w:He de-li-vered * Dan-iel from the li-on's * den. And Jo-nah from the bel-ly of the whale,
 AA |G2 G2 GG GG |G2 G2 FF G2 |A2 G F2 D FD |]
w: And the He-brew child-ren from the fier-y fur-nace, So why not e-ver-y man?